X:5
T:Boil Them Cabbage Down
T:Bile 'Em Cabbage Down
G:Key: A
M:C|
S:Sarah Comer
Z:abc-transcription Josh Larios <hades@elsewhere.org>, 2017.02.13
Z:abc-copyright This transcription is licensed under a Creative Commons Attribution-ShareAlike 4.0 International License.
K:A
[P:A]y0|: AB | "A"c2 cc c2 cc | "D"d2 dd d2 dd | "A"c2 cc c2 cc | "E7"B2 BB B2 AB | 
|"A"c2 cc c2 cc | "D"d2 dd d2 dd | "A"c2 cc "E7"B2 BB | "A"A2 AA A2  :|
[P:B]y0|: F2 | "A"E4 A4 | "D"F4 A4 | "A"E4 A4 | "E7"B2 c2 dc B2 | 
|"A"E4 A4 | "D"F4 A2 d2 | "A"c2 cc "E7"B2 BB  | "A"A2 AA A2 :|

